!!!!SEGMENT: pl-cz--iii-270--004_gotschalk-filip--missa-pastoriria-in-c-sanctus.krn
!!!id: 18xx:125
!!!COM: Gotschalk, Filip
!!!COM-rism: pe30020320
!!!CDT: 1760-1809
!!!CNT:
!!!OTL: Sanctus
!!!PDT:
!!!SMS-siglum: PL-CZ
!!!SMS-shelfmark: III-270
!!!NIFC-rismID:
!!!URL-scan: http://repozytorium.nifc.pl/skany/pl-cz-nut--iii-270
!!!ONB-nifc:
**kern	**fba	**dynam	**kern	**dynam	**kern	**dynam	**kern	**text	**kern	**text	**kern	**text	**kern	**kern	**kern	**dynam	**kern	**dynam
*part10	*	*part10	*part9	*part9	*part8	*part8	*part7	*part7	*part6	*part6	*part5	*part5	*part4	*part3	*part2	*part2	*part1	*part1
*	*	*	*group4	*	*group4	*	*group3	*	*group3	*	*group3	*	*group2	*group2	*group1	*	*group1	*
*staff10	*	*	*staff9	*	*staff8	*	*staff7	*staff7	*staff6	*staff6	*staff5	*staff5	*staff4	*staff3	*staff2	*	*staff1	*
*I"Organo.	*	*	*I"Violino Secondo.	*	*I"Violino Primo	*	*I"Baſso.	*	*I"Alto	*	*I"Canto.	*	*I"Cornu Secondo in C.	*I"Cornu Primo in C.	*I"Clarinetto Secondo.	*	*I"Clarinetto Primo.	*
*I'Org	*	*	*I'Vn II	*	*I'Vn I	*	*I'B	*	*I'A	*	*I'C	*	*I'Cor II	*I'Cor I	*I'Cl II	*	*I'Cl I	*
*clefF4	*	*	*clefG2	*	*clefG2	*	*clefF4	*	*clefC3	*	*clefC1	*	*clefG2	*clefG2	*clefG2	*	*clefG2	*
*k[]	*	*	*k[]	*	*k[]	*	*k[]	*	*k[]	*	*k[]	*	*k[]	*k[]	*k[]	*	*k[]	*
*M4/4	*	*	*M4/4	*	*M4/4	*	*M4/4	*	*M4/4	*	*M4/4	*	*M4/4	*M4/4	*M4/4	*	*M4/4	*
*met(c)	*	*	*met(c)	*	*met(c)	*	*met(c)	*	*met(c)	*	*met(c)	*	*met(c)	*met(c)	*met(c)	*	*met(c)	*
=1	=1	=1	=1	=1	=1	=1	=1	=1	=1	=1	=1	=1	=1	=1	=1	=1	=1	=1
!	!	!LO:DY:t=piano	!	!	!	!	!LO:TX:a:t=Solo	!	!	!	!	!	!LO:TX:a:t=1	!LO:TX:a:t=1	!LO:TX:a:t=1	!	!LO:TX:a:t=1	!
!LO:TX:a:B:t=Adagio.	!	!	!LO:TX:a:B:t=Adagio.	!	!LO:TX:a:B:t=Adagio.	!	!LO:TX:a:B:t=Adagio	!	!LO:TX:a:B:t=Adagio	!	!LO:TX:a:B:t=Adagio	!	!LO:TX:a:B:t=Adagio	!LO:TX:a:B:t=Adagio	!LO:TX:a:B:t=Adagio	!	!LO:TX:a:B:t=Adagio	!
!	!	!	!	!	!	!	!	!	!	!	!	!	!	!	!	!	!LO:TX:a:t=P:problem:caudy w dół w półnutach oznaczone, przy innych wartościach do opisania	!
*	*	*	*	*	*	*below	*	*	*	*	*	*	*	*	*	*	*	*
4c\	.	p	2r	.	4ccc\	p	4c\	San-	2r	.	2r	.	1r	1r	1r	.	1r	.
!LO:TX:a:B:t=Solo	!	!	!	!	!	!	!	!	!	!	!	!	!	!	!	!	!	!
4G\	.	.	.	.	4gg\	.	4G\	-ctus	.	.	.	.	.	.	.	.	.	.
!	!	!	!	!	!	!	!	!	!LO:TX:a:t=Solo	!	!LO:TX:a:t=Solo	!	!	!	!	!	!	!
!	!	!	!	!LO:DY:t=p	!	!	!	!	!LO:TX:b:t=P:problem:"S" przed kluczem	!	!	!	!	!	!	!	!	!
2r	.	.	4g/	p	4ee\	.	2r	.	4g\	[S]an-	4ee\	San-	.	.	.	.	.	.
.	.	.	4e/	.	4cc\	.	.	.	4e\	-ctus	4cc\	-ctus	.	.	.	.	.	.
=2	=2	=2	=2	=2	=2	=2	=2	=2	=2	=2	=2	=2	=2	=2	=2	=2	=2	=2
!LO:TX:b:t=Tutti	!	!LO:DY:a:t=f	!	!LO:DY:t=f	!	!LO:DY:t=f&colon;	!	!	!	!	!	!	!	!	!	!	!	!
*	*	*	*	*	*	*	*	*	*2\right	*	*2\right	*	*	*	*	*	*	*
4GG/	7_	f	4dd\	f	4ff\	f	4G\	San-	2dd\	San-	2ff\	San-	4dd\	4ff\	4dd\	f	4ff\	f
8BB/L	.	.	8dd\L	.	8ff\L	.	8B\L	.	.	.	.	.	8dd\L	8ff\L	8dd\L	.	8ff\L	.
8D\J	.	.	8dd\J	.	8ff\J	.	8d\J	.	.	.	.	.	8dd\J	8ff\J	8dd\J	.	8ff\J	.
*	*	*	*2\right	*	*2\right	*	*2\right	*	*	*	*	*	*2\right	*2\right	*2\right	*	*2\right	*
4G\	.	.	2dd\	.	2ff\	.	2G\	-ctus	4dd\	-ctus	2ff\	-ctus	2dd\	2ff\	2dd\	.	2ff\	.
4GG/	.	.	.	.	.	.	.	.	4r	.	.	.	.	.	.	.	.	.
.	X	.	.	.	.	.	.	.	.	.	.	.	.	.	.	.	.	.
=3	=3	=3	=3	=3	=3	=3	=3	=3	=3	=3	=3	=3	=3	=3	=3	=3	=3	=3
*^	*	*	*	*	*	*	*	*	*	*	*	*	*	*	*	*	*	*
*clefC1	*	*	*	*	*	*	*	*	*	*	*	*	*	*	*	*	*	*	*
!	!LO:TX:a:t=Solo	!	!	!	!	!	!LO:DY:t=p	!LO:TX:a:t=1	!	!	!	!	!	!LO:TX:a:t=1	!LO:TX:a:t=1	!LO:TX:a:t=1	!	!LO:TX:a:t=1	!
2ryy	4ff\	.	.	2r	.	4ff\	p	1r	.	4dd\	San-	4ff\	San-	1r	1r	1r	.	1r	.
.	4dd\	.	.	.	.	4dd\	.	.	.	4b\	-ctus	4dd\	-ctus	.	.	.	.	.	.
!	!	!	!	!	!LO:DY:p	!	!	!	!	!	!	!	!	!	!	!	!	!	!
4dd/	4f\	.	.	4f/	p	4dd\	.	.	.	8f\	Do-	8dd\	Do-	.	.	.	.	.	.
.	.	.	.	.	.	.	.	.	.	8f\	-mi-	8dd\	-mi-	.	.	.	.	.	.
4b/	4d\	.	.	4d/	.	4b\	.	.	.	4d\	-nus	4b\	-nus	.	.	.	.	.	.
*v	*v	*	*	*	*	*	*	*	*	*	*	*	*	*	*	*	*	*	*
=4	=4	=4	=4	=4	=4	=4	=4	=4	=4	=4	=4	=4	=4	=4	=4	=4	=4	=4
!LO:LB:g=original	!	!	!	!	!	!	!	!	!	!	!	!	!	!	!	!	!	!
*clefF4	*	*	*	*	*	*	*	*	*	*	*	*	*	*	*	*	*	*
!LO:TX:a:t=Tutti	!	!	!	!LO:DY:f	!	!	!	!	!	!	!	!	!	!	!	!	!	!
8C\L	.	.	4e/	f	4ee\ 4cc\	f	4c\	Do-	4g\	Do-	4ee\	Do-	4cc\	4cc\	4cc\	.	4cc\	.
8E\	.	.	.	.	.	.	.	.	.	.	.	.	.	.	.	.	.	.
*	*	*	*	*	*	*	*	*	*	*	*	*	*	*tremolo	*	*	*	*
8G\	.	.	8ee\L 8cc\	.	8ccc\L	.	8c\	-mi-	8g\	-mi-	8ee\	-mi-	8cc\L	8cc\L	4ee\	.	4ccc\	.
8c\J	.	.	8ee\J 8cc\	.	8ccc\J	.	8c\	-nus	8g\	-nus	8ee\	-nus	8cc\J	8cc\	.	.	.	.
!	!	!	!	!	!	!	!	!	!LO:LB:g=original	!	!LO:LB:g=original	!	!	!	!	!	!	!
!	!	!	!	!	!	!	!	!	!	!	!	!	!LO:TX:a:t=P:problem:mixed beam	!	!	!	!	!
*	*	*	*tremolo	*	*tremolo	*	*	*	*	*	*	*	*	*	*	*	*tremolo	*
8D\L	7_ #_	.	8ff#X\L 8a\	.	8ccc\L	.	8D\	De-	8a\	De-	8cc\	De-	8cc\L	8cc\	8ee\	.	8ccc\L	.
8F#X\	.	.	8ff#\ 8a\	.	8ccc\	.	8F#X\	-us	8a\	-us	8cc\	-us	8c/	8cc\J	4ee\	.	8ccc\	.
*	*	*	*	*	*	*	*	*	*	*	*	*	*	*Xtremolo	*	*	*	*
8A\	.	.	8ff#\ 8a\	.	8ccc\	.	8D\	Sa-	8a\	Sa-	8cc\	Sa-	8c/	8cc\L	.	.	8ccc\	.
8d\J	X X	.	8ff#\J 8a\	.	8ccc\J	.	8F#\	-ba-	8a\	-ba-	8cc\	-ba-	8c/J	8cc\J	8ee\	.	8ccc\J	.
*	*	*	*Xtremolo	*	*	*	*	*	*	*	*	*	*	*	*	*	*Xtremolo	*
=5	=5	=5	=5	=5	=5	=5	=5	=5	=5	=5	=5	=5	=5	=5	=5	=5	=5	=5
!	!	!	!	!	!LO:LB:g=original	!	!LO:LB:g=original	!	!	!	!	!	!	!	!	!	!	!
2G\	.	.	2gg\ 2b\	.	8bb\L 8dd\	.	1G\	-oth	(>2d\	-oth	1b\	-oth	1g/	2dd\	8dd\L	.	8bb\L	.
.	.	.	.	.	8bb\ 8dd\	.	.	.	.	.	.	.	.	.	8b\	.	8gg\	.
!	!	!	!	!	!	!LO:DY:t=f&colon;	!	!	!	!	!	!	!	!	!	!	!	!
.	.	.	.	.	8bb\ 8dd\	f	.	.	.	.	.	.	.	.	8b\	.	8gg\	.
.	.	.	.	.	8bb\J 8dd\	.	.	.	.	.	.	.	.	.	8b\J	.	8gg\J	.
*	*	*	*	*	*Xtremolo	*	*	*	*	*	*	*	*	*	*	*	*	*
2GG/	.	.	2r	.	2gg\ 2b\	.	.	.	2d\)	.	.	.	.	2gg\	2b\	.	2gg\	.
=6	=6	=6	=6	=6	=6	=6	=6	=6	=6	=6	=6	=6	=6	=6	=6	=6	=6	=6
!LO:TX:a:t=Solo	!	!	!	!LO:DY:t=p	!	!	!	!	!	!	!	!	!LO:TX:a:t=1	!LO:TX:a:t=1	!LO:TX:a:t=1	!	!LO:TX:a:t=1	!
4c\`	.	p	2r	p	4ccc\	p	4c\	San-	2r	.	2r	.	1r	1r	1r	.	1r	.
4G\`	.	.	.	.	4gg\	.	4G\	-ctus	.	.	.	.	.	.	.	.	.	.
!	!	!	!	!	!	!	!	!	!LO:TX:a:t=Solo	!	!	!	!	!	!	!	!	!
2r	.	.	4g/	.	4ee\	.	2r	.	4g\	San-	4ee\	San-	.	.	.	.	.	.
.	.	.	4e/	.	4cc\	.	.	.	4e\	-ctus	4cc\	-ctus	.	.	.	.	.	.
=7	=7	=7	=7	=7	=7	=7	=7	=7	=7	=7	=7	=7	=7	=7	=7	=7	=7	=7
!	!	!	!	!	!	!	!	!	!	!	!	!	!	!	!LO:LB:g=original	!	!LO:LB:g=original	!
!LO:TX:b:t=Tutti	!	!LO:DY:a	!	!LO:DY:t=f&colon;	!	!LO:DY:t=f7colon;	!	!	!	!	!	!	!	!	!	!	!	!
4GG/	7_	f	4dd\	f	4ff\	f	4G\	San-	2dd\	San-	2ff\	San-	4dd\	4ff\	4dd\	.	4ff\	.
8BB/L	.	.	8dd\L	.	8ff\L	.	8B\L	.	.	.	.	.	8dd\L	8ff\L	8dd\L	.	8ff\L	.
8D\J	.	.	8dd\J	.	8ff\J	.	8d\J	.	.	.	.	.	8dd\J	8ff\J	8dd\J	.	8ff\J	.
4G\	.	.	2dd\ 2f\	.	2ff\	.	2G\	-ctus	4dd\	-ctus	2ff\	-ctus	2dd\	2ff\	2dd\	.	2ff\	.
4GG/	X	.	.	.	.	.	.	.	4r	.	.	.	.	.	.	.	.	.
=8	=8	=8	=8	=8	=8	=8	=8	=8	=8	=8	=8	=8	=8	=8	=8	=8	=8	=8
!	!	!	!	!	!	!	!	!	!	!	!	!	!LO:LB:g=original	!LO:LB:g=original	!	!	!	!
*^	*	*	*	*	*	*	*	*	*	*	*	*	*	*	*	*	*	*
*clefC1	*	*	*	*	*	*	*	*	*	*	*	*	*	*	*	*	*	*	*
!	!	!	!LO:DY:t=p	!	!LO:DY:t=p	!	!	!	!	!	!	!	!	!LO:TX:a:t=1	!LO:TX:a:t=1	!LO:TX:a:t=1	!	!LO:TX:a:t=1	!
2ryy	4ff\	.	p	2r	p	4ff\	p	1r	.	4dd\	San-	4ff\	San-	1r	1r	1r	.	1r	.
!	!LO:TX:a:t=Solo	!	!	!	!	!	!	!	!	!	!	!	!	!	!	!	!	!	!
.	4dd\	.	.	.	.	4dd\	.	.	.	4b\	-ctus	4dd\	-ctus	.	.	.	.	.	.
4dd/	4f\	.	.	4f/	.	4dd\	.	.	.	8f\	Do-	8dd\	Do-	.	.	.	.	.	.
.	.	.	.	.	.	.	.	.	.	8f\	-mi-	8dd\	-mi-	.	.	.	.	.	.
4b/	4d\	.	.	4d/	.	4b\	.	.	.	4d\	-nus	4b\	-nus	.	.	.	.	.	.
*v	*v	*	*	*	*	*	*	*	*	*	*	*	*	*	*	*	*	*	*
=9	=9	=9	=9	=9	=9	=9	=9	=9	=9	=9	=9	=9	=9	=9	=9	=9	=9	=9
!LO:LB:g=original	!	!	!	!	!	!	!	!	!LO:LB:g=original	!	!LO:LB:g=original	!	!	!	!	!	!	!
*clefF4	*	*	*	*	*	*	*	*	*	*	*	*	*	*	*	*	*	*
!LO:TX:b:t=Tutti	!	!LO:DY:a:t=f	!	!LO:DY:rj:t=f	!	!	!	!	!	!	!	!	!	!	!	!	!	!
8C\L	.	f	4e/	f	4ee\ 4cc\	f	4c\	Do-	4g\	Do-	4ee\	De-	4c/	4cc\	4e/	.	4cc\	.
8E\	.	.	.	.	.	.	.	.	.	.	.	.	.	.	.	.	.	.
8G\	.	.	8ee\L 8cc\	.	8ccc\L	.	8c\	-mi-	8g\	-mi-	8ee\	-us	8c/L	8cc\L	4ee\	.	4ccc\	.
8c\J	.	.	8ee\J 8cc\	.	8ccc\J	.	8c\	-nus	8g\	-nus	8ee\	De-	8c/J	8cc\J	.	.	.	.
*	*	*	*tremolo	*	*tremolo	*	*	*	*	*	*	*	*	*	*	*	*	*
8D\L	7_ n_	.	8ff#X\L 8a\	.	8ccc\L	.	8D\	De-	8a\	De-	8cc\	-us	4c/	4cc\	4ee\	.	4ccc\	.
8F#X\	_ X	.	8ff#\ 8a\	.	8ccc\	.	8F#X\	-us	8a\	-us	[>8cc\	Sa-	.	.	.	.	.	.
8A\	.	.	8ff#\ 8a\	.	8ccc\	.	8D\	Sa-	8a\	Sa-	8cc\]	.	8c/L	8cc\L	4ee\	.	4ccc\	.
8d\J	X	.	8ff#\J 8a\	.	8ccc\J	.	8F#\	-ba-	8a\	-ba-	8cc\	-ba-	8c/J	8cc\J	.	.	.	.
=10	=10	=10	=10	=10	=10	=10	=10	=10	=10	=10	=10	=10	=10	=10	=10	=10	=10	=10
!	!	!	!	!	!	!	!LO:LB:g=original	!	!	!	!	!	!	!	!	!	!	!
2G\	.	.	8gg\L 8b\	.	8bb\L 8dd\	.	1G\	-oth	1d\	-oth	1b\	-oth	2g/	2dd\	4dd\	.	4bb\	.
.	.	.	8gg\ 8b\	.	8bb\ 8dd\	.	.	.	.	.	.	.	.	.	.	.	.	.
.	.	.	8gg\ 8b\	.	8bb\ 8dd\	.	.	.	.	.	.	.	.	.	4b\	.	4gg\	.
.	.	.	8gg\J 8b\	.	8bb\J 8dd\	.	.	.	.	.	.	.	.	.	.	.	.	.
*	*	*	*Xtremolo	*	*Xtremolo	*	*	*	*	*	*	*	*	*	*	*	*	*
2GG/	.	.	2b/ 2d/	.	2gg\ 2b\	.	.	.	.	.	.	.	2g/	2g/	2b\	.	2gg\	.
=11||	=11||	=11||	=11||	=11||	=11||	=11||	=11||	=11||	=11||	=11||	=11||	=11||	=11||	=11||	=11||	=11||	=11||	=11||
!LO:LB:g=original	!	!	!LO:LB:g=original	!	!LO:LB:g=original	!	!	!	!	!	!	!	!	!	!	!	!	!
*2\right	*	*	*clefG2	*	*clefG2	*	*	*	*clefC3	*	*clefC1	*	*	*	*	*	*clefG2	*
*M4/4	*	*	*M4/4	*	*	*	*	*	*M4/4	*	*M4/4	*	*	*	*	*	*M4/4	*
*met(c)	*	*	*met(c)	*	*	*	*	*	*met(c)	*	*met(c)	*	*	*	*	*	*met(c)	*
*tremolo	*	*	*tremolo	*	*	*	*	*	*	*	*	*	*	*	*	*	*	*
!LO:TX:a:B:t=Allegro.	!	!	!LO:TX:a:B:t=Allegro.	!	!LO:TX:a:B:t=Allegro	!	!LO:TX:a:B:t=Allegro	!	!LO:TX:a:B:t=Allegro	!	!LO:TX:a:B:t=Allegro	!	!LO:TX:a:B:t=Allegro	!LO:TX:a:B:t=Allegro	!LO:TX:a:B:t=Allegro.	!	!LO:TX:a:B:t=Allegro	!
!LO:TX:a:B:t=Pleni.	!	!	!LO:TX:a:B:t=Pleni.	!	!LO:TX:a:B:t=Pleni	!	!	!	!	!	!	!	!LO:TX:a:B:t=Pleni	!LO:TX:a:B:t=Pleni	!LO:TX:a:B:t=Pleni	!	!LO:TX:a:B:t=Pleni	!
!LO:TX:b:t=Tutti	!	!	!	!	!LO:TX:a:t=P:problem:brak oznaczenia metrycznego	!	!LO:TX:a:t=P:problem:brak oznaczenia metrycznego	!	!	!	!	!	!LO:TX:a:t=P:problem:brak oznaczenia metrycznego	!LO:TX:a:t=P:problem:brak oznaczenia metrycznego	!LO:TX:a:t=P:problem:brak oznaczenia metrycznego	!	!	!
8c\L	.	.	8cc\L 8e\	.	4gg\	.	4c\	Ple-	4g\	Ple-	4gg\	Ple-	4cc\	4gg\	4cc\	.	4gg\	.
8c\	.	.	8cc\ 8e\	.	.	.	.	.	.	.	.	.	.	.	.	.	.	.
8c\	.	.	8cc\ 8e\	.	8ee\L	.	8c\	-ni	8g\	-ni	8ee\	-ni	8cc\L	8ee\L	8cc\L	.	8ee\L	.
8c\J	.	.	8cc\J 8e\	.	8cc\J	.	8c\	sunt	8g\	sunt	8cc\	sunt	8cc\J	8cc\J	8cc\J	.	8cc\J	.
8G\L	.	.	8b\L 8d\	.	4dd\	.	4G\	Cae-	4g\	Cae-	4dd\	Cae-	4g/	4dd\	4g/	.	4dd\	.
8G\	.	.	8b\ 8d\	.	.	.	.	.	.	.	.	.	.	.	.	.	.	.
8G\	.	.	8b\ 8d\	.	8b\L	.	8G\	-li	8d\	-li	8b\	-li	8g/L	4g/	8g/L	.	8b\L	.
8G\J	.	.	8b\J 8d\	.	8g/J	.	8G\	et	8d\	et	8g/	et	8g/J	.	8g/J	.	8g\J	.
=12	=12	=12	=12	=12	=12	=12	=12	=12	=12	=12	=12	=12	=12	=12	=12	=12	=12	=12
!	!	!	!	!	!	!	!	!	!	!	!LO:LB:g=original	!	!	!	!	!	!	!
8C\L	.	.	8e/L 8G/	.	4cc\	.	4C/	ter-	4e\	ter-	4cc\	ter-	4c/	4cc\	4.e/	.	4cc\	.
!	!	!	!LO:TX:a:t=P:problem:niejednoznaczna wysokość dźwięku&colon; 8e / 8f	!	!	!	!	!	!	!	!	!	!	!	!	!	!	!
8G\J	.	.	8f/J 8G/	.	.	.	.	.	.	.	.	.	.	.	.	.	.	.
8C\L	.	.	8e/L 8G/	.	8cc\L	.	4C/	-ra	4e\	-ra	4cc\	-ra	4r	4r	.	.	8cc\L	.
8G\J	.	.	8f/J 8G/	.	16dd\L	.	.	.	.	.	.	.	.	.	8f/	.	16dd\L	.
.	.	.	.	.	16b\JJ	.	.	.	.	.	.	.	.	.	.	.	16b\JJ	.
!	!	!	!	!	!	!	!	!	!LO:LB:g=original	!	!	!	!	!	!LO:LB:g=original	!	!LO:LB:g=original	!
4C/	.	.	4e/ 4G/	.	16cc\LL	.	2r	.	2r	.	2r	.	8e/	8cc\	4e/	.	4cc\	.
.	.	.	.	.	16b\	.	.	.	.	.	.	.	.	.	.	.	.	.
.	.	.	.	.	16cc\	.	.	.	.	.	.	.	8r	8r	.	.	.	.
.	.	.	.	.	16dd\JJ	.	.	.	.	.	.	.	.	.	.	.	.	.
4r	.	.	4r	.	16ee\LL	.	.	.	.	.	.	.	8cc\L	8ee\L	4r	.	4r	.
.	.	.	.	.	16dd\	.	.	.	.	.	.	.	.	.	.	.	.	.
.	.	.	.	.	16ee\	.	.	.	.	.	.	.	8dd\J	8ff\J	.	.	.	.
.	.	.	.	.	16ff\JJ	.	.	.	.	.	.	.	.	.	.	.	.	.
=13	=13	=13	=13	=13	=13	=13	=13	=13	=13	=13	=13	=13	=13	=13	=13	=13	=13	=13
*	*	*	*	*	*	*	*	*	*	*	*	*	*	*	*tremolo	*	*	*
8C/L	.	.	8e/L 8G/	.	8gg\L	.	4C/	ple-	4g\	ple-	8gg\L	ple-	4ee\	4gg\	8cc\L	.	8gg\L	.
8C/	.	.	8e/ 8G/	.	16aa\L	.	.	.	.	.	16aa\L	.	.	.	8cc\	.	16aa\L	.
.	.	.	.	.	16gg\JJ	.	.	.	.	.	16gg\JJ	.	.	.	.	.	16gg\JJ	.
!	!	!	!	!	!	!	!	!	!	!	!	!	!LO:TX:a:t=P:problem:mixed beam	!	!	!	!	!
8C/	.	.	8e/ 8G/	.	8ee\L	.	8C/	-ni	8g\	-ni	8ee\	-ni	8cc\L	8ee\L	8cc\	.	8ee\L	.
8C/J	.	.	8e/J 8G/	.	8cc\J	.	8C/	sunt	8g\	sunt	8cc\	sunt	8e/J	8cc\J	8cc\J	.	8cc\J	.
!	!	!	!	!	!LO:LB:g=original	!	!LO:LB:g=original	!	!	!	!	!	!	!LO:LB:g=original	!	!	!	!
8G\L	.	.	8f/L 8G/	.	8dd\L	.	4G\	Cae-	4g\	Cae-	8dd\L	Cae-	4g/	4dd\	8g/L	.	8dd\L	.
8G\	.	.	8f/ 8G/	.	16ee\L	.	.	.	.	.	16ee\L	.	.	.	8g/	.	16ee\L	.
.	.	.	.	.	16dd\JJ	.	.	.	.	.	16dd\JJ	.	.	.	.	.	16dd\JJ	.
8G\	.	.	8f/ 8G/	.	8b\L	.	8G\	-li	8d\	-li	8b\	-li	8g/L	8g/L	8g/	.	8b\L	.
8G\J	.	.	8f/J 8G/	.	8g/J	.	8G\	et	8d\	et	8g/	et	8g/J	8g/J	8g/J	.	8g/J	.
*Xtremolo	*	*	*Xtremolo	*	*	*	*	*	*	*	*	*	*	*	*Xtremolo	*	*	*
=14	=14	=14	=14	=14	=14	=14	=14	=14	=14	=14	=14	=14	=14	=14	=14	=14	=14	=14
!	!	!	!	!	!	!	!	!	!	!	!	!	!LO:LB:g=original	!	!	!	!	!
8C\L	.	.	8e/L 8G/	.	8cc\L	.	4c\	ter-	4e\	ter-	4cc\	ter-	8e/L	8cc\L	2r	.	2r	.
8G\	.	.	8f/ 8G/	.	16dd\L	.	.	.	.	.	.	.	8g/	8dd\	.	.	.	.
.	.	.	.	.	16b\JJ	.	.	.	.	.	.	.	.	.	.	.	.	.
8C\	.	.	8e/ 8G/	.	8cc\L	.	4c\	-ra	4e\	-ra	4cc\	-ra	8e/	8cc\	.	.	.	.
8G\J	.	.	8f/J 8G/	.	16dd\L	.	.	.	.	.	.	.	8g/J	8dd\J	.	.	.	.
.	.	.	.	.	16b\JJ	.	.	.	.	.	.	.	.	.	.	.	.	.
!LO:LB:g=original	!	!	!	!	!	!	!	!	!	!	!	!	!	!	!	!	!	!
4C/	.	.	8e/L 8G/	.	8cc\L	.	8c\	Glo-	8e\	Glo-	8cc\L	Glo-	8e/L	8cc\L	8e/L	.	8cc\L	.
.	.	.	16g/L	.	16ee\L	.	8c\	-ri-	16g\LL	-ri-	16ee\L	-ri-	8g/J	16ee\L	16g/L	.	16ee\L	.
.	.	.	16f/JJ	.	16dd\JJ	.	.	.	16f\JJ	.	16dd\JJ	.	.	16dd\JJ	16f/JJ	.	16dd\JJ	.
16C\LL	.	.	4e/ 4G/	.	4cc\	.	4c\	-a	4e\	-a	4cc\	-a	4e/	4cc\	4e/	.	4cc\	.
16D\	.	.	.	.	.	.	.	.	.	.	.	.	.	.	.	.	.	.
16E\	.	.	.	.	.	.	.	.	.	.	.	.	.	.	.	.	.	.
16F#X\JJ	.	.	.	.	.	.	.	.	.	.	.	.	.	.	.	.	.	.
=15	=15	=15	=15	=15	=15	=15	=15	=15	=15	=15	=15	=15	=15	=15	=15	=15	=15	=15
!	!	!	!	!	!	!	!	!	!	!	!LO:LB:g=original	!	!	!	!	!	!	!
*tremolo	*	*	*	*	*	*	*	*	*	*	*	*	*	*	*	*	*	*
8G\L	5 3	.	8b\L	.	8dd\L	.	2r	.	2r	.	2r	.	8g/	8dd\	2r	.	2r	.
8G\	6 4	.	16cc\L	.	16ee\L	.	.	.	.	.	.	.	8r	8r	.	.	.	.
.	.	.	16a\JJ	.	16cc#X\JJ	.	.	.	.	.	.	.	.	.	.	.	.	.
8G\	5 3	.	8b\L	.	8dd\L	.	.	.	.	.	.	.	8g/	8dd\	.	.	.	.
8G\J	6 4	.	16cc\L	.	16ee\L	.	.	.	.	.	.	.	8r	8r	.	.	.	.
.	.	.	16a\JJ	.	16cc#\JJ	.	.	.	.	.	.	.	.	.	.	.	.	.
!	!	!	!LO:LB:g=original	!	!	!	!	!	!	!	!	!	!LO:TX:a:t=P:problem:mixed beam	!	!	!	!	!
8G\L	5 3	.	8b/L 8d/	.	8dd\L	.	8G\	Glo-	8b\	Glo-	8dd\	Glo-	8g/L	8dd\L	8b\L	.	8dd\L	.
8G\	.	.	16dd\L	.	16ff\L	.	8G\	-ri-	16dd\LL	-ri-	16ff\LL	-ri-	16dd\L	16ff\L	16dd\L	.	16ff\L	.
.	.	.	16cc\JJ	.	16ee\JJ	.	.	.	16cc\JJ	.	16ee\JJ	.	16cc\JJ	16ee\JJ	16cc\JJ	.	16ee\JJ	.
8G\	.	.	8b/L 8d/	.	4dd\	.	4G\	-a	4b\	-a	4dd\	-a	4g/	4dd\	4b\	.	4dd\	.
8G\J	.	.	8b/J 8d/	.	.	.	.	.	.	.	.	.	.	.	.	.	.	.
=16	=16	=16	=16	=16	=16	=16	=16	=16	=16	=16	=16	=16	=16	=16	=16	=16	=16	=16
!	!	!	!	!	!	!	!LO:TX:a:t=2	!	!LO:TX:a:t=2	!	!LO:TX:a:t=2	!	!	!	!LO:TX:a:t=3	!	!LO:TX:a:t=3	!
8E\'L	.	.	8e/L	.	8ee\L	.	0r	.	0r	.	0r	.	4cc\	8ee\L	0r	.	0r	.
8F\'	.	.	8f/	.	8ff\	.	.	.	.	.	.	.	.	8ff\	.	.	.	.
8G\'	.	.	8g/	.	8gg\	.	.	.	.	.	.	.	4c/	8gg\	.	.	.	.
8A\'J	.	.	8a/J	.	8aa\J	.	.	.	.	.	.	.	.	8aa\J	.	.	.	.
4G\'	.	.	4g/	.	4gg\	.	.	.	.	.	.	.	4cc\	4gg\	.	.	.	.
8E\'L	.	.	8e/L	.	8ee\L	.	.	.	.	.	.	.	4c/	8ee\L	.	.	.	.
8C\'J	.	.	8c/J	.	8cc\J	.	.	.	.	.	.	.	.	8cc\J	.	.	.	.
=17	=17	=17	=17	=17	=17	=17	=17	=17	=17	=17	=17	=17	=17	=17	=17	=17	=17	=17
!	!	!	!	!	!LO:LB:g=original	!	!	!	!	!	!	!	!	!	!	!	!	!
!	!	!	!	!	!	!	!	!	!	!	!	!	!LO:TX:a:t=1	!LO:TX:a:t=1	!	!	!	!
8BB/'L	.	.	8B/L	.	8b\L	.	.	.	.	.	.	.	1r	1r	.	.	.	.
8C/'	.	.	8c/	.	8cc\	.	.	.	.	.	.	.	.	.	.	.	.	.
8D\'	.	.	8d/	.	8dd\	.	.	.	.	.	.	.	.	.	.	.	.	.
8E\'J	.	.	8e/J	.	8ee\J	.	.	.	.	.	.	.	.	.	.	.	.	.
4D/'	.	.	4d/	.	4dd\	.	.	.	.	.	.	.	.	.	.	.	.	.
8BB/'L	.	.	8B/L	.	8b\L	.	.	.	.	.	.	.	.	.	.	.	.	.
8GG/'J	.	.	8G/J	.	8g/J	.	.	.	.	.	.	.	.	.	.	.	.	.
=18	=18	=18	=18	=18	=18	=18	=18	=18	=18	=18	=18	=18	=18	=18	=18	=18	=18	=18
!	!	!	!	!	!	!	!	!	!LO:LB:g=original	!	!	!	!	!	!	!	!	!
*	*	*	*tremolo	*	*	*	*	*	*	*	*	*	*	*	*	*	*	*
8C/L	.	.	8cc\L 8e\	.	16cc\LL	.	4C/	Glo-	4e\	Glo-	4cc\	Glo-	4cc\	4cc\	1r	.	1r	.
.	.	.	.	.	16b\	.	.	.	.	.	.	.	.	.	.	.	.	.
8C/	.	.	8cc\ 8e\	.	16cc\	.	.	.	.	.	.	.	.	.	.	.	.	.
.	.	.	.	.	16dd\JJ	.	.	.	.	.	.	.	.	.	.	.	.	.
8C/	.	.	8cc\ 8e\	.	8ee\L	.	8C/	-ri-	8g\	-ri-	8ee\L	-ri-	4cc\	8ee\L	.	.	.	.
8C/J	.	.	8cc\J 8e\	.	8cc\J	.	8C/	-a	8e\	-a	8cc\J	-a	.	8cc\J	.	.	.	.
!	!	!	!	!	!	!	!LO:LB:g=original	!	!	!	!	!	!	!LO:LB:g=original	!	!	!	!
8G\L	.	.	8b\L 8d\	.	8dd\L	.	4G\	tu-	8b\L	tu-	8dd\L	tu-	4g/	8dd\L	.	.	.	.
8G\	.	.	8b\ 8d\	.	8ff\J	.	.	.	8dd\J	.	8ff\J	.	.	8ff\J	.	.	.	.
8G\	.	.	8b\ 8d\	.	4dd\	.	4G\	-a	4b\	-a	4dd\	-a	4g/	4dd\	.	.	.	.
!	!	!	!	!	!	!	!	!	!	!	!	!	!	!	!LO:TX:b:t=Volti.	!	!	!
8G\J	.	.	8b\J 8d\	.	.	.	.	.	.	.	.	.	.	.	.	.	.	.
*Xtremolo	*	*	*Xtremolo	*	*	*	*	*	*	*	*	*	*	*	*	*	*	*
=19	=19	=19	=19	=19	=19	=19	=19	=19	=19	=19	=19	=19	=19	=19	=19	=19	=19	=19
!LO:LB:g=original	!	!	!	!	!	!	!	!	!	!	!	!	!	!	!LO:PB:g=original	!	!	!
*	*	*	*	*	*	*	*	*	*	*	*	*	*tremolo	*	*	*	*	*
!	!	!	!	!	!	!	!	!	!LO:TX:a:t=1	!	!	!	!	!	!	!	!	!
8E\'L	.	.	8e/L	.	8ee\L	.	0r	.	1r	.	1r	.	8c/L	8ee\L	8e/L	.	8ee\L	.
8F\'	.	.	8f/	.	8ff\	.	.	.	.	.	.	.	8c/	8ff\	8f/	.	8ff\	.
8G\'	.	.	8g/	.	8gg\	.	.	.	.	.	.	.	8c/	8gg\	8g/	.	8gg\	.
8A\'J	.	.	8a/J	.	8aa\J	.	.	.	.	.	.	.	8c/J	8aa\J	8a/J	.	8aa\J	.
*	*	*	*	*	*	*	*	*	*	*	*	*	*Xtremolo	*	*	*	*	*
4G\`	.	.	4g/	.	4gg\	.	.	.	.	.	.	.	2c/	4gg\	4g/	.	4gg\	.
8E\'L	.	.	8e/L	.	8ee\L	.	.	.	.	.	.	.	.	8ee\L	8e/L	.	8ee\L	.
8C\'J	.	.	8c/J	.	8cc\J	.	.	.	.	.	.	.	.	8cc\J	8c/J	.	8cc\J	.
=20	=20	=20	=20	=20	=20	=20	=20	=20	=20	=20	=20	=20	=20	=20	=20	=20	=20	=20
!	!	!	!	!	!	!	!	!	!	!	!	!	!LO:LB:g=original	!	!	!	!LO:LB:g=original	!
!	!	!	!	!	!	!	!	!	!	!	!	!	!LO:TX:a:t=1	!LO:TX:a:t=1	!	!	!	!
8BB/'L	.	.	8B/L	.	8b\L	.	.	.	2r	.	2r	.	1r	1r	8B/L	.	8b\L	.
8C/'	.	.	8c/	.	8cc\	.	.	.	.	.	.	.	.	.	8c/	.	8cc\	.
8D\'	.	.	8d/	.	8dd\	.	.	.	.	.	.	.	.	.	8d/	.	8dd\	.
8E\'J	.	.	8e/J	.	8ee\J	.	.	.	.	.	.	.	.	.	8e/J	.	8ee\J	.
4D/	.	.	4d/	.	4dd\	.	.	.	4r	.	4r	.	.	.	4d/	.	4dd\	.
8BB/L	.	.	8B/L	.	8b\L	.	.	.	8r	.	8r	.	.	.	8B/L	.	8b\L	.
8GG/J	.	.	8G/J	.	8g\J	.	.	.	8g\	O-	8g/	O-	.	.	8G/J	.	8g/J	.
=21	=21	=21	=21	=21	=21	=21	=21	=21	=21	=21	=21	=21	=21	=21	=21	=21	=21	=21
!	!	!	!LO:PB:g=original	!	!LO:LB:g=original	!	!	!	!	!	!	!	!	!	!	!	!	!
!LO:TX:a:t=P:problem:mixed beam	!	!	!	!	!	!	!	!	!	!	!	!	!	!	!	!	!	!
8C/L	.	.	8e/L	.	8cc\L	.	2r	.	8e\	-san-	8cc\	-san-	8r	8r	4e/	.	4cc\	.
8c\	.	.	8g/	.	8cc\	.	.	.	8e\	-na	8cc\	-na	8e/L	8cc\L	.	.	.	.
8C/	.	.	8e/	.	8cc\	.	.	.	8e\	in	8cc\	in	8e/	8cc\	4r	.	4r	.
8c\J	.	.	8g/J	.	8cc\J	.	.	.	8e\	ex-	8cc\	ex-	8e/J	8cc\J	.	.	.	.
!	!	!	!	!	!	!	!	!	!	!	!LO:PB:g=original	!	!	!	!	!	!	!
8c\L	.	.	8e/L	.	8cc\L	.	4r	.	8e\L	-cel-	8cc\L	-cel-	4e/	4cc\	4r	.	4r	.
8c\	.	.	16b\L	.	16dd\L	.	.	.	8g\J	.	16dd\L	.	.	.	.	.	.	.
.	.	.	16cc\JJ	.	16ee\JJ	.	.	.	.	.	16ee\JJ	.	.	.	.	.	.	.
8c\	4 2	.	4dd\	.	4ff\	.	8r	.	4dd\	-ſis	8ff\	-ſis	4r	4r	8r	.	8r	.
8c\J	.	.	.	.	.	.	8d\	O-	.	.	8ff\	o-	.	.	8dd\	.	8ff\	.
=22	=22	=22	=22	=22	=22	=22	=22	=22	=22	=22	=22	=22	=22	=22	=22	=22	=22	=22
!	!	!	!	!	!	!	!	!	!LO:LB:g=original	!	!	!	!	!	!	!	!	!
*	*	*	*	*	*tremolo	*	*	*	*	*	*	*	*	*	*	*	*	*
!LO:TX:a:t=P:problem:mixed beam	!	!	!	!	!LO:TX:a:t=P:problem:cztery kropki nad nutą	!	!	!	!	!	!	!	!	!	!	!	!	!
8C/L	.	.	8cc\L	.	8ee\'L	.	8c\	-san-	2r	.	8ee\	-san-	8r	8r	4cc\	.	4ee\	.
8c\	.	.	8g\J	.	8ee\'	.	8C/	-na	.	.	8ee\	-na	8cc\L	8ee\L	.	.	.	.
8C/	.	.	8cc\L	.	8ee\'	.	8c\	in	.	.	8ee\	in	8cc\	8ee\	4r	.	4r	.
8c\J	.	.	8g\J	.	8ee\'J	.	8c\	ex-	.	.	8ee\	ex-	8cc\J	8ee\J	.	.	.	.
8c\L	.	.	8cc\L	.	8ee\L	.	8c\L	-cel-	4r	.	8ee\L	-cel-	4cc\	4ee\	4r	.	4r	.
8c\	.	.	16dd\L	.	16ff\L	.	16d\L	.	.	.	16ff\L	.	.	.	.	.	.	.
.	.	.	16ee\JJ	.	16gg\JJ	.	16e\JJ	.	.	.	16gg\JJ	.	.	.	.	.	.	.
8c\	6 4	.	4ff\	.	4aa\	.	8f\	-sis	8r	.	8aa\	-sis	4r	4r	8r	.	8r	.
8c\J	.	.	.	.	.	.	8f\	o-	8cc\	o-	8aa\	o-	.	.	8ff\	.	8aa\	.
=23	=23	=23	=23	=23	=23	=23	=23	=23	=23	=23	=23	=23	=23	=23	=23	=23	=23	=23
!LO:TX:a:t=P:problem:mixed beam	!	!	!LO:TX:a:t=P:problem:mixed beam	!	!LO:TX:a:t=P:problem:cztery kropki nad nutą	!	!	!	!	!	!	!	!LO:TX:a:t=1	!LO:TX:a:t=1	!	!	!	!
8C/'L	.	.	8ee\L	.	8gg\'L	.	8e\	-san-	8cc\	-san-	8gg\	-san-	1r	1r	4ee\	.	4gg\	.
8G\'	.	.	8g/	.	8gg\'	.	8e\	-na	8cc\	-na	8gg\	-na	.	.	.	.	.	.
8G\'	.	.	8g/	.	8gg\'	.	4r	.	4r	.	4r	.	.	.	4r	.	4r	.
8G\'J	.	.	8g/J	.	8gg\'J	.	.	.	.	.	.	.	.	.	.	.	.	.
!	!	!	!	!	!	!	!LO:LB:g=original	!	!	!	!	!	!	!	!	!	!	!
8G`\L	.	.	8g/L	.	16gg\LL	.	2r	.	2r	.	2r	.	.	.	2r	.	2r	.
.	.	.	.	.	16aa\	.	.	.	.	.	.	.	.	.	.	.	.	.
8c`\	.	.	8cc\	.	16bb\	.	.	.	.	.	.	.	.	.	.	.	.	.
.	.	.	.	.	16ccc\JJ	.	.	.	.	.	.	.	.	.	.	.	.	.
8G`\	.	.	8g/	.	8gg\L	.	.	.	.	.	.	.	.	.	.	.	.	.
8E`\J	.	.	8e/J	.	8ee\J	.	.	.	.	.	.	.	.	.	.	.	.	.
=24	=24	=24	=24	=24	=24	=24	=24	=24	=24	=24	=24	=24	=24	=24	=24	=24	=24	=24
!	!	!	!	!	!	!	!	!	!	!	!	!	!	!	!LO:LB:g=original	!	!	!
8G`\L	.	.	8g/L	.	8gg\L	.	4r	.	4r	.	4r	.	2r	2r	2r	.	2r	.
8F`\J	.	.	8f/	.	(>8ff\	.	.	.	.	.	.	.	.	.	.	.	.	.
8D`\L	.	.	8d/	.	8dd\	.	8d\	in	8dd\	in	8dd\	in	.	.	.	.	.	.
8BB`/J	.	.	8B/J	.	8b\J)	.	8B\	ex-	8b\	ex-	8b\	ex-	.	.	.	.	.	.
!	!	!	!	!	!	!	!	!	!	!	!LO:LB:g=original	!	!	!	!	!	!	!
!	!	!	!	!	!LO:TX:a:t=P:problem:mixed beam	!	!	!	!	!	!	!	!	!	!	!	!	!
8C`\L	.	.	8c/L	.	8cc\'L	.	8c\L	-cel-	8cc\L	-cel-	8cc\L	-cel-	4r	4r	4r	.	4r	.
8E`\J	.	.	8e/J	.	8ee\'	.	8e\J	.	8ee\J	.	8ee\J	.	.	.	.	.	.	.
4GG/	.	.	8G/L	.	8g/'	.	8G\	-sis	8g\	-sis	8g/	-sis	8r	8r	8r	.	8r	.
.	.	.	8g/J	.	8g/'J	.	8G\	o-	8g\	o-	8g/	o-	8g/	8g/	8g/	.	8g/	.
=25	=25	=25	=25	=25	=25	=25	=25	=25	=25	=25	=25	=25	=25	=25	=25	=25	=25	=25
!	!	!	!LO:LB:g=original	!	!	!	!	!	!	!	!	!	!	!LO:LB:g=original	!	!	!	!
*	*	*	*	*	*	*	*	*	*	*	*	*	*tremolo	*tremolo	*	*	*	*
!LO:TX:a:t=P:problem:mixed beam	!	!	!	!	!LO:TX:a:t=P:problem:cztery kropki nad nutą	!	!	!	!	!	!	!	!	!LO:TX:a:t=P:problem:cztery kropki nad nutą	!	!	!	!
8C/L	.	.	8e/L	.	8cc\'L	.	8c\	-san-	8e\	-san-	8cc\	-san-	8e/L	8cc\'L	8e/L	.	8cc\'L	.
8c\	.	.	8g/	.	8cc\'	.	8C/	-na	8e\	-na	8cc\	-na	8e/	8cc\'	8g/	.	8cc\'	.
8C/	.	.	8e/	.	8cc\'	.	4r	.	8e\	in	8cc\	in	8e/	8cc\'	8e/	.	8cc\'	.
8c\J	.	.	8g/J	.	8cc\'J	.	.	.	8e\	ex-	8cc\	ex-	8e/J	8cc\'J	8g/J	.	8cc\'J	.
*	*	*	*	*	*	*	*	*	*	*	*	*	*Xtremolo	*Xtremolo	*	*	*	*
!	!	!	!	!	!	!	!	!	!LO:LB:g=original	!	!	!	!	!	!	!	!	!
8c\L	.	.	8e/L	.	8cc\L	.	4r	.	8e\L	-cel-	8cc\L	-cel-	4e/	4cc\	8e/L	.	8cc\L	.
8c\	.	.	16b\L	.	16dd\L	.	.	.	8g\J	.	16dd\L	.	.	.	16g/L	.	16dd\L	.
.	.	.	16cc\JJ	.	16ee\JJ	.	.	.	.	.	16ee\JJ	.	.	.	16cc\JJ	.	16ee\JJ	.
8c\	4 2	.	4dd\	.	4ff\	.	8r	.	4dd\	-ſis	8ff\	-ſis	4r	4r	4dd\	.	4ff\	.
8c\J	.	.	.	.	.	.	8d\	o-	.	.	8ff\	o-	.	.	.	.	.	.
=26	=26	=26	=26	=26	=26	=26	=26	=26	=26	=26	=26	=26	=26	=26	=26	=26	=26	=26
!	!	!	!	!	!LO:LB:g=original	!	!	!	!	!	!	!	!	!	!	!	!LO:LB:g=original	!
!LO:TX:a:t=P:problem:mixed beam	!	!	!	!	!LO:TX:a:t=P:problem:cztery kropki nad nutą	!	!	!	!	!	!	!	!	!	!	!	!	!
8C/L	.	.	8cc\L	.	8ee\'L	.	8c\	-san-	2r	.	8ee\	-san-	8r	8r	2r	.	2r	.
!	!	!	!	!	!	!	!	!	!	!	!	!	!LO:TX:a:t=P:problem:mixed beam	!	!	!	!	!
8c\	.	.	8g\J	.	8ee\'	.	8C/	-na	.	.	8ee\	-na	8cc\L	8ee\L	.	.	.	.
8C/	.	.	8cc\L	.	8ee\'	.	8c\	in	.	.	8ee\	in	8c/	8ee\	.	.	.	.
8c\J	.	.	8g\J	.	8ee\'J	.	8c\	ex-	.	.	8ee\	ex-	8cc\J	8ee\J	.	.	.	.
!	!	!	!	!	!	!	!LO:LB:g=original	!	!	!	!	!	!	!	!	!	!	!
8c\L	.	.	8cc\L	.	8ee\L	.	4c\	-cel-	4r	.	8ee\L	-cel-	4cc\	4ee\	8cc\L	.	8ee\L	.
8c\	.	.	16dd\L	.	16ff\L	.	.	.	.	.	16ff\L	.	.	.	16dd\L	.	16ff\L	.
.	.	.	16ee\JJ	.	16gg\JJ	.	.	.	.	.	16gg\JJ	.	.	.	16ee\JJ	.	16gg\JJ	.
8c\	2 4	.	4ff\	.	4aa\	.	8F\	-ſis	8r	.	8aa\	-sis	4r	4r	4ff\	.	4aa\	.
8c\J	.	.	.	.	.	.	8f\	o-	8cc\	o-	8aa\	o-	.	.	.	.	.	.
=27	=27	=27	=27	=27	=27	=27	=27	=27	=27	=27	=27	=27	=27	=27	=27	=27	=27	=27
!LO:LB:g=original	!	!	!	!	!	!	!	!	!	!	!LO:LB:g=original	!	!LO:LB:g=original	!	!	!	!	!
!LO:TX:a:t=P:problem:mixed beam	!	!	!LO:TX:a:t=P:problem:mixed beam	!	!LO:TX:a:t=P:problem:cztery kropki nad nutą	!	!	!	!	!	!	!	!LO:TX:a:t=1	!LO:TX:a:t=1	!LO:TX:a:t=1	!	!LO:TX:a:t=1	!
8C/'L	.	.	8ee\L	.	8gg\'L	.	8e\	-san-	8cc\	-san-	8gg\	-san-	1r	1r	1r	.	1r	.
8G\'	.	.	8g/	.	8gg\'	.	8e\	-na	8cc\	-na	8gg\	-na	.	.	.	.	.	.
8G\'	.	.	8g/	.	8gg\'	.	4r	.	4r	.	4r	.	.	.	.	.	.	.
8G\'J	.	.	8g/J	.	8gg\'J	.	.	.	.	.	.	.	.	.	.	.	.	.
*	*	*	*	*	*Xtremolo	*	*	*	*	*	*	*	*	*	*	*	*	*
8G`\L	.	.	8g/L	.	8gg\L	.	2r	.	2r	.	2r	.	.	.	.	.	.	.
8c`\	.	.	8cc\	.	8ccc\	.	.	.	.	.	.	.	.	.	.	.	.	.
8G`\	.	.	8g/	.	8gg\	.	.	.	.	.	.	.	.	.	.	.	.	.
8E`\J	.	.	8e/J	.	8ee\J	.	.	.	.	.	.	.	.	.	.	.	.	.
=28	=28	=28	=28	=28	=28	=28	=28	=28	=28	=28	=28	=28	=28	=28	=28	=28	=28	=28
!	!	!	!	!	!	!	!	!	!	!	!LO:TX:a:t=P:problem:5 taktów skreślonych	!	!	!	!	!	!	!
8G`\L	.	.	8g/L	.	8gg\L	.	4r	.	4r	.	4r	.	2r	2r	2r	.	2r	.
8F`\	.	.	8f/	.	8ff\	.	.	.	.	.	.	.	.	.	.	.	.	.
8D`\	.	.	8d/	.	8dd\	.	8d\	in	8dd\	in	8dd\	in	.	.	.	.	.	.
8BB`\J	.	.	8B/J	.	8b\J	.	8B\	ex-	8b\	ex-	8b\	ex-	.	.	.	.	.	.
!	!	!	!LO:TX:a:t=P:problem:błędnie kreska taktowa w połowie taktu	!	!	!	!	!	!	!	!	!	!	!	!	!	!	!
8C`\L	.	.	8c/L	.	8cc\L	.	8c\L	-cel-	8cc\L	-cel-	8cc\L	-cel-	4r	4r	4r	.	4r	.
8E`\J	.	.	8e/	.	16ee\L	.	8e\J	.	8ee\J	.	8ee\J	.	.	.	.	.	.	.
.	.	.	.	.	16cc\JJ	.	.	.	.	.	.	.	.	.	.	.	.	.
4GG/	.	.	8G/	.	8g/L	.	8G\	-ſis	8g\	-ſis	8g/	-ſis	8r	8r	8r	.	8r	.
.	.	.	8g/J	.	8g/J	.	8G\	o-	8g\	o-	8g/	o-	8g/	8g/	8g/	.	8g/	.
=29	=29	=29	=29	=29	=29	=29	=29	=29	=29	=29	=29	=29	=29	=29	=29	=29	=29	=29
!	!	!	!LO:LB:g=original	!	!	!	!	!	!LO:LB:g=original	!	!LO:LB:g=original	!	!	!	!	!	!	!
!	!	!	!	!	!	!	!	!	!	!	!	!	!	!LO:TX:a:t=P:problem:mixed beam	!	!	!	!
8C/L	.	.	8e/L 8G/	.	8cc\L	.	8C/	-san-	8cc\	-san-	8cc\	-san-	4cc\	8cc\L	8e/L	.	8cc\L	.
8C/	.	.	8g/	.	8ee\	.	8E\	-na	8cc\	-na	8ee\	-na	.	8ee\	8g/	.	8ee\J	.
8C/	6 4	.	8f/ 8G/	.	8dd\	.	8G\	in	8g\	in	8dd\	in	4g/	8dd\	8f/	.	8dd\L	.
8C/J	.	.	8g/J	.	8b\J	.	8G\	ex-	8g\	ex-	8b\	ex-	.	8g/J	8g/J	.	8b\J	.
!	!	!	!	!	!	!	!LO:LB:g=original	!	!	!	!	!	!	!	!	!	!	!
*tremolo	*	*	*tremolo	*	*	*	*	*	*	*	*	*	*	*	*	*	*	*
8C/L	.	.	8e/L 8G/	.	8cc\L	.	8C/L	-cel-	8c\L	-cel-	8cc\L	-cel-	4cc\	8cc\L	2e/	.	8cc\L	.
8C/	.	.	8e/ 8G/	.	8ee\J	.	8E\J	.	8e\J	.	8ee\J	.	.	8ee\J	.	.	8ee\J	.
8C/	.	.	8e/ 8G/	.	4gg\	.	4G\	-ſis	4g\	-ſis	4gg\	-ſis	4g/	4gg\	.	.	4gg\	.
8C/J	.	.	8e/J 8G/	.	.	.	.	.	.	.	.	.	.	.	.	.	.	.
=30	=30	=30	=30	=30	=30	=30	=30	=30	=30	=30	=30	=30	=30	=30	=30	=30	=30	=30
!	!	!	!	!	!	!	!	!	!	!	!	!	!	!	!LO:LB:g=original	!	!	!
!	!	!	!	!	!	!	!LO:TX:a:t=2	!	!LO:TX:a:t=2	!	!LO:TX:a:t=2	!	!LO:TX:a:t=2	!LO:TX:a:t=2	!	!	!	!
8G\L	.	.	8f/L 8G/	.	8ff\L	.	0r	.	0r	.	0r	.	0r	0r	2g/	.	8ff\L	.
8G\	.	.	8f/ 8G/	.	8aa\	.	.	.	.	.	.	.	.	.	.	.	8aa\	.
8G\	.	.	8f/ 8G/	.	8ff\	.	.	.	.	.	.	.	.	.	.	.	8ff\	.
8G\J	.	.	8f/J 8G/	.	8dd\J	.	.	.	.	.	.	.	.	.	.	.	8dd\J	.
(>8C\'L	.	.	8e/L 8G/	.	8ee\L	.	.	.	.	.	.	.	.	.	4g/	.	8ee\L	.
8E\')	.	.	8e/ 8G/	.	8gg\J	.	.	.	.	.	.	.	.	.	.	.	8gg\J	.
8C\	.	.	8e/ 8G/	.	4cc\	.	.	.	.	.	.	.	.	.	4e/	.	4cc\	.
8C\J	.	.	8e/J 8G/	.	.	.	.	.	.	.	.	.	.	.	.	.	.	.
=31	=31	=31	=31	=31	=31	=31	=31	=31	=31	=31	=31	=31	=31	=31	=31	=31	=31	=31
!	!	!	!	!	!LO:LB:g=original	!	!	!	!	!	!	!	!	!	!	!	!	!
!	!	!	!LO:TX:a:t=P:problem:mixed beam	!	!	!	!	!	!	!	!	!	!	!	!LO:TX:a:t=2	!	!LO:TX:a:t=2	!
8C/L	.	.	8e/L	.	8cc\L	.	.	.	.	.	.	.	.	.	0r	.	0r	.
8C/	.	.	8cc\	.	8ee\	.	.	.	.	.	.	.	.	.	.	.	.	.
8C/	.	.	8ee\	.	8gg\	.	.	.	.	.	.	.	.	.	.	.	.	.
8C/J	.	.	8cc\J	.	8ee\J	.	.	.	.	.	.	.	.	.	.	.	.	.
8C/L	6	.	4.gg\	.	4.bb-X\	.	.	.	.	.	.	.	.	.	.	.	.	.
8C/	7	.	.	.	.	.	.	.	.	.	.	.	.	.	.	.	.	.
8C/	.	.	.	.	.	.	.	.	.	.	.	.	.	.	.	.	.	.
8C/J	.	.	8ee\	.	8gg\	.	.	.	.	.	.	.	.	.	.	.	.	.
=32	=32	=32	=32	=32	=32	=32	=32	=32	=32	=32	=32	=32	=32	=32	=32	=32	=32	=32
!LO:LB:g=original	!	!	!	!	!	!	!	!	!	!	!	!	!	!	!	!	!	!
8C/L	6 4	.	8a/L 8f/	.	4.aa\	.	4r	.	4r	.	4r	.	4r	4r	.	.	.	.
8C/	.	.	8a/ 8f/	.	.	.	.	.	.	.	.	.	.	.	.	.	.	.
8C/	.	.	8a/ 8f/	.	.	.	8F\	in	8a\	in	8ff\	in	8r	8r	.	.	.	.
8C/J	.	.	8a/J 8f/	.	8ff\	.	8F\	ex-	8a\	ex-	8ff\	ex-	8g/	8ff\	.	.	.	.
!	!	!	!	!	!	!	!	!	!	!	!	!	!	!LO:TX:a:t=P:problem:mixed beam	!	!	!	!
8C/L	n7 5	.	8b/L 8g/	.	8dd\L	.	2G\	-cel-	2b\	-cel-	8dd\L	-cel-	4g/	8dd\L	.	.	.	.
8C/	.	.	8b/ 8g/	.	8ff\	.	.	.	.	.	8ff\	.	.	8ff\	.	.	.	.
8C/	.	.	8b/ 8g/	.	8dd\	.	.	.	.	.	8dd\	.	4g/	8dd\	.	.	.	.
8C/J	.	.	8b/J 8g/	.	8b\J	.	.	.	.	.	8b\J	.	.	8g/J	.	.	.	.
=33	=33	=33	=33	=33	=33	=33	=33	=33	=33	=33	=33	=33	=33	=33	=33	=33	=33	=33
8c\L	.	.	4cc/ 4e/	.	16cc\LL	.	4c\	-ſis	4g\	-ſis	4cc\	-ſis	4c/	4cc\	4cc\	.	8cc\L	.
.	.	.	.	.	16dd\	.	.	.	.	.	.	.	.	.	.	.	.	.
8c\	.	.	.	.	16ee\	.	.	.	.	.	.	.	.	.	.	.	16ee\L	.
.	.	.	.	.	16ff\JJ	.	.	.	.	.	.	.	.	.	.	.	16ff\JJ	.
8c\	.	.	16ee\LL	.	16gg\LL	.	4r	.	4r	.	4r	.	4r	4r	8ee\L	.	8gg\L	.
.	.	.	16dd\	.	16ff\	.	.	.	.	.	.	.	.	.	.	.	.	.
8c\J	.	.	16ee\	.	16gg\	.	.	.	.	.	.	.	.	.	16ee\L	.	16gg\L	.
.	.	.	16ff\JJ	.	16aa\JJ	.	.	.	.	.	.	.	.	.	16ff\JJ	.	16aa\JJ	.
!	!	!	!	!	!	!	!	!	!	!	!	!	!	!LO:LB:g=original	!	!	!LO:LB:g=original	!
8c\L	-7	.	4.gg\	.	4.bb-X\	.	2r	.	2r	.	2r	.	2r	2r	4.gg\	.	4.bb-X\	.
8c\	.	.	.	.	.	.	.	.	.	.	.	.	.	.	.	.	.	.
8c\	.	.	.	.	.	.	.	.	.	.	.	.	.	.	.	.	.	.
8c\J	.	.	8ee\	.	8gg\	.	.	.	.	.	.	.	.	.	8ee\	.	8gg\	.
=34	=34	=34	=34	=34	=34	=34	=34	=34	=34	=34	=34	=34	=34	=34	=34	=34	=34	=34
!	!	!	!	!	!	!	!	!	!	!	!LO:LB:g=original	!	!	!	!	!	!	!
8c\L	6 4	.	8ff\L 8a\	.	4.aa\	.	4r	.	4r	.	4r	.	4r	4r	8r	.	8r	.
8c\	.	.	8ff\ 8a\	.	.	.	.	.	.	.	.	.	.	.	4ff\	.	4aa\	.
8c\	.	.	8ff\ 8a\	.	.	.	8r	.	8r	.	8r	.	8r	8r	.	.	.	.
8c\J	.	.	8ff\J 8a\	.	8ff\	.	8c\	o-	8a\	o-	8ff\	o-	8dd\	8ff\	8dd\	.	8ff\	.
8c\L	n7 5	.	8f/L	.	8dd\L	.	4c\	-san-	8f\L	-san-	8dd\L	-san-	4g/	8dd\L	4r	.	4r	.
8c\	.	.	8a/	.	8ff\	.	.	.	8a\J	.	8ff\J	.	.	8ff\J	.	.	.	.
8c\	.	.	8f/ 8G/	.	8dd\	.	4c\	-na	8f\L	-na	8dd\L	-na	4g/	4dd\	8ff\L	.	8ddd\L	.
8c\J	.	.	8d/J	.	8b\J	.	.	.	8d\J	.	8b\J	.	.	.	8dd\J	.	8bb\J	.
=35	=35	=35	=35	=35	=35	=35	=35	=35	=35	=35	=35	=35	=35	=35	=35	=35	=35	=35
!	!	!	!LO:LB:g=original	!	!	!	!LO:LB:g=original	!	!LO:LB:g=original	!	!	!	!	!	!	!	!	!
8C\'L	.	.	4e/	.	4cc\	.	4C/	in	4e\	in	4cc\	in	4e/	4cc\	4ee\	.	4ccc\	.
8E\'	.	.	.	.	.	.	.	.	.	.	.	.	.	.	.	.	.	.
8G\'	.	.	4ee\ 4cc\	.	4ccc\	.	4c\	ex-	4g\	ex-	4ee\	ex-	4cc\	4ee\	4ee\	.	4ccc\	.
8E\'J	.	.	.	.	.	.	.	.	.	.	.	.	.	.	.	.	.	.
!	!	!	!	!	!	!	!	!	!	!	!	!	!LO:LB:g=original	!	!	!	!	!
8C\L	.	.	4ee\ 4cc\	.	4ccc\	.	4c\	-cel-	2g\	-cel-	2ee\	-cel-	4cc\	4gg\	4ee\	.	4ccc\	.
8c\	.	.	.	.	.	.	.	.	.	.	.	.	.	.	.	.	.	.
8G\	.	.	4ee\ 4cc\	.	4ccc\	.	4G\	.	.	.	.	.	8cc\L	4ee\	4ee\	.	4ccc\	.
8E\J	.	.	.	.	.	.	.	.	.	.	.	.	8g\J	.	.	.	.	.
=36	=36	=36	=36	=36	=36	=36	=36	=36	=36	=36	=36	=36	=36	=36	=36	=36	=36	=36
2C/	.	.	2ee\ 2cc\	.	2ccc\ 2ee\ 2g\ 2c\	.	2C/	-ſis.	2g\	-ſis.	2ee\	-ſis	2e/	2cc\	2ee\	.	2ccc\	.
!	!	!	!	!	!	!	!	!	!LO:TX:b:i:t=Benedictus Sequens Volti	!	!	!	!	!	!	!	!	!
2r	.	.	2r	.	2r	.	2r	.	2r	.	2r	.	2r	2r	2r	.	2r	.
==	==	==	==	==	==	==	==	==	==	==	==	==	==	==	==	==	==	==
*-	*-	*-	*-	*-	*-	*-	*-	*-	*-	*-	*-	*-	*-	*-	*-	*-	*-	*-
!!!system-decoration: [g1][g2][g3][g4]s10
!!!RDF**kern: > = above
!!!RDF**kern: < = below
!!!RDF**dynam: f = "for"
!!!RDF**dynam: p = "p:"
!!!ENC: Marta Lawrence
!!!END: 2020-06-18
!!!ENC: Andrzej Kubiczek
!!!END: 2020-02-21
